X:15
T:Kinrara
C:William Marshall
S:Petrie's Third Collection of Strathspey Reels and Country Dances &c.
Z:Steve Wyrick <sjwyrick'at'gmail'dot'com>, 7/30/05
N:Petrie's Third Collection, page 7
L:1/8
M:C
R:Strathspey
K:Bb
"^very Slow"
D/C/|B,<BB>c|B<GF<D|B,<Bd<B cCCD/C/|B,<Bf>d (g/f/g/a/) b>g|f>dc<e|dBB:|
d/e/|f>dB<d FB G/F/E/D/|E>F G/F/E/D/ ECC d/e/|f>dB>d (g/f/g/a/) b>d|e?>def g2 (ga/b/)|
f>dB<d f>dB<d|G<cc>B \{Bc\}dccD/C/|B,B fd (g/f/g/a/) b>g f<dc>d B2 B|]
